X: 1
T: Grappa Groove
M: 6/8
L: 1/8
R: jig
K: Bmin
f2B B2f-|fgf edc|B2f fed|e2e ede|
(ef)B B2f-|fgf edc|Bba f2e|1 edc Bg/f/e:|2 [M:3/8] edc||
|:[M:6/8] B2F B2D|B2F BFd|c2A A2c|e2e edc|
B2F B2D|B2F BFd|c2e edc|1 [M:3/8] dBA:|2 dBA Bg/f/e||
